X:17
T:Inverness Gathering, The 
C:Joe Buchanan's Scottish Tome - Page 052.1
I:052 1
R:Barndance
Z:Carl Allison
L:1/8
M:C
K:A
e>c | "A"d>cB>c A>Bc>A | "A"{g}a2 e2 e2 ((3def) | "G"=g2 B>A G2 ((3BAG) | "G"=g2 d2 d2 (e>c) |
"A"d>cB>c A>Bc>A | "A"{g}a2 e2 e2 a2 | "G"=g>ed>B G>Bd>B | "A"{f}e2 A2 A2 :|
((3efg) | "A"a>ec>e a>ec>A | "A"a2 e2 e2 f2 | "G"g>ag>f g>ag>e | "G"d>cB>A =G>AB>d |
"A"((3cBA) (e!tenuto!A) cBA a>!tenuto!A | "A"a2 e2 e2 a2 | "G"=g>ed>B G>Bd<B | "A"{f}e2 A2 A2 :|
(e>c) | "A"((3AAA) a2 ((3AAA) a2 | "A"((3AAA) (a!tenuto!=g) e2 d>B | "G"((3=GGG) g2 ((3GGG) g2 | "A"((3=GGG) (g!tenuto!e) d2 (B>G) |
"A"((3AAA) a2 ((3AAA) a2 | "A"((3AAA) (a!tenuto!=g) e2 a2 | "G"=g>ed>B G>Bd>B | "A"{f}e2 A2 A2 :|

